packages/tokens/icons/insightPanel3/size24Px.svg

<svg viewBox="0 0 24 24" fill="none" xmlns="http://www.w3.org/2000/svg" width="1em" height="1em"><path d="M19.5 6.5V4.5C19.5 3.39543 18.6046 2.5 17.5 2.5L6.5 2.5C5.39543 2.5 4.5 3.39543 4.5 4.5L4.5 19.5C4.5 20.6046 5.39543 21.5 6.5 21.5H17.5C18.6046 21.5 19.5 20.6046 19.5 19.5V16.5" stroke="currentColor" stroke-linecap="round"/><path d="M7.5 18.5L11.5 11.5L14.5 15.5L17 13" stroke="currentColor" stroke-linejoin="round"/><path d="M12.5 11.5C12.5 12.0523 12.0523 12.5 11.5 12.5C10.9477 12.5 10.5 12.0523 10.5 11.5C10.5 10.9477 10.9477 10.5 11.5 10.5C12.0523 10.5 12.5 10.9477 12.5 11.5Z" stroke="currentColor"/><path d="M15.5 15.5C15.5 16.0523 15.0523 16.5 14.5 16.5C13.9477 16.5 13.5 16.0523 13.5 15.5C13.5 14.9477 13.9477 14.5 14.5 14.5C15.0523 14.5 15.5 14.9477 15.5 15.5Z" stroke="currentColor"/><path d="M7.5 9.5L7.5 18.5H17.5" stroke="currentColor" stroke-linecap="round" stroke-linejoin="round"/><circle cx="18.5" cy="11.5" r="2" stroke="currentColor"/><path d="M21.4999 14.5L20 13.0001" stroke="currentColor" stroke-linecap="round" stroke-linejoin="round"/><rect x="7.5" y="5.5" width="9" height="2" rx="1" stroke="currentColor"/></svg>

<svg xmlns="http://www.w3.org/2000/svg" fill="none" viewBox="0 0 24 24" width="1em" height="1em"><path stroke="currentColor" stroke-linecap="round" d="M19.5 6.5v-2a2 2 0 0 0-2-2h-11a2 2 0 0 0-2 2v15a2 2 0 0 0 2 2h11a2 2 0 0 0 2-2v-3"/><path stroke="currentColor" stroke-linejoin="round" d="m7.5 18.5 4-7 3 4L17 13"/><path stroke="currentColor" d="M12.5 11.5a1 1 0 1 1-2 0 1 1 0 0 1 2 0Zm3 4a1 1 0 1 1-2 0 1 1 0 0 1 2 0Z"/><path stroke="currentColor" stroke-linecap="round" stroke-linejoin="round" d="M7.5 9.5v9h10"/><circle cx="18.5" cy="11.5" r="2" stroke="currentColor"/><path stroke="currentColor" stroke-linecap="round" stroke-linejoin="round" d="M21.5 14.5 20 13"/><rect width="9" height="2" x="7.5" y="5.5" stroke="currentColor" rx="1"/></svg>
